assets/vibrant_glow_grade.cube
TITLE "vibrant glow grade (bug-59)"
COMMENT "Derived from the 960x540 gradient-tile reference: warm S-curve contrast, ~1.5x vibrance saturation, +18deg saturation-gated hue shift."
LUT_3D_SIZE 8
DOMAIN_MIN 0.0 0.0 0.0
DOMAIN_MAX 1.0 1.0 1.0
0.011765 0.011765 0.011765
0.137255 0.039216 0.000000
0.286275 0.086275 0.000000
0.450980 0.133333 0.000000
0.615686 0.184314 0.000000
0.776471 0.231373 0.000000
0.917647 0.274510 0.000000
1.000000 0.301961 0.000000
0.000000 0.133333 0.039216
0.098039 0.137255 0.000000
0.286275 0.211765 0.000000
0.450980 0.258824 0.000000
0.615686 0.309804 0.000000
0.776471 0.356863 0.000000
0.917647 0.400000 0.000000
1.000000 0.423529 0.000000
0.000000 0.278431 0.082353
0.047059 0.278431 0.000000
0.211765 0.286275 0.000000
0.450980 0.407843 0.000000
0.615686 0.454902 0.000000
0.776471 0.501961 0.000000
0.917647 0.545098 0.000000
1.000000 0.568627 0.000000
0.000000 0.435294 0.129412
0.000000 0.435294 0.003922
0.152941 0.435294 0.000000
0.329412 0.450980 0.000000
0.615686 0.615686 0.000000
0.776471 0.662745 0.000000
0.917647 0.705882 0.000000
1.000000 0.729412 0.000000
0.000000 0.600000 0.180392
0.000000 0.600000 0.050980
0.101961 0.600000 0.000000
0.266667 0.600000 0.000000
0.450980 0.615686 0.000000
0.725490 0.776471 0.000000
0.917647 0.870588 0.000000
1.000000 0.894118 0.000000
0.000000 0.752941 0.227451
0.000000 0.752941 0.098039
0.054902 0.752941 0.000000
0.219608 0.752941 0.000000
0.388235 0.752941 0.000000
0.564706 0.776471 0.000000
0.807843 0.917647 0.000000
0.949020 1.000000 0.000000
0.000000 0.894118 0.266667
0.000000 0.894118 0.141176
0.011765 0.894118 0.000000
0.176471 0.894118 0.000000
0.345098 0.894118 0.000000
0.505882 0.894118 0.000000
0.666667 0.917647 0.000000
0.803922 1.000000 0.000000
0.000000 1.000000 0.298039
0.000000 1.000000 0.172549
0.000000 1.000000 0.019608
0.145098 1.000000 0.000000
0.313725 1.000000 0.000000
0.474510 1.000000 0.000000
0.615686 1.000000 0.000000
0.698039 1.000000 0.000000
0.039216 0.000000 0.129412
0.137255 0.000000 0.086275
0.286275 0.000000 0.035294
0.450980 0.015686 0.000000
0.615686 0.066667 0.000000
0.776471 0.113725 0.000000
0.917647 0.156863 0.000000
1.000000 0.180392 0.000000
0.000000 0.098039 0.133333
0.137255 0.125490 0.117647
0.286275 0.086275 0.027451
0.450980 0.137255 0.000000
0.615686 0.192157 0.000000
0.776471 0.239216 0.000000
0.917647 0.278431 0.000000
1.000000 0.305882 0.000000
0.000000 0.278431 0.203922
0.031373 0.278431 0.062745
0.250980 0.286275 0.027451
0.450980 0.341176 0.000000
0.615686 0.372549 0.000000
0.776471 0.411765 0.000000
0.917647 0.447059 0.000000
1.000000 0.470588 0.000000
0.000000 0.435294 0.250980
0.000000 0.435294 0.117647
0.098039 0.435294 0.000000
0.337255 0.450980 0.000000
0.615686 0.572549 0.000000
0.776471 0.600000 0.000000
0.917647 0.631373 0.000000
1.000000 0.650980 0.000000
0.000000 0.600000 0.298039
0.000000 0.600000 0.168627
0.023529 0.600000 0.000000
0.231373 0.600000 0.000000
0.454902 0.615686 0.000000
0.756863 0.776471 0.000000
0.917647 0.823529 0.000000
1.000000 0.839216 0.000000
0.000000 0.752941 0.345098
0.000000 0.752941 0.215686
0.000000 0.752941 0.035294
0.160784 0.752941 0.000000
0.364706 0.752941 0.000000
0.572549 0.776471 0.000000
0.831373 0.917647 0.000000
0.980392 1.000000 0.000000
0.000000 0.894118 0.388235
0.000000 0.894118 0.258824
0.000000 0.894118 0.082353
0.105882 0.894118 0.000000
0.301961 0.894118 0.000000
0.490196 0.894118 0.000000
0.670588 0.917647 0.000000
0.819608 1.000000 0.000000
0.000000 1.000000 0.419608
0.000000 1.000000 0.290196
0.000000 1.000000 0.117647
0.070588 1.000000 0.000000
0.262745 1.000000 0.000000
0.443137 1.000000 0.000000
0.607843 1.000000 0.000000
0.698039 1.000000 0.000000
0.082353 0.000000 0.266667
0.211765 0.000000 0.266667
0.286275 0.000000 0.180392
0.450980 0.000000 0.129412
0.615686 0.000000 0.078431
0.776471 0.000000 0.027451
0.917647 0.015686 0.000000
1.000000 0.039216 0.000000
0.000000 0.047059 0.266667
0.086275 0.043137 0.266667
0.286275 0.031373 0.207843
0.450980 0.000000 0.058824
0.615686 0.011765 0.000000
0.776471 0.070588 0.000000
0.917647 0.117647 0.000000
1.000000 0.145098 0.000000
0.000000 0.203922 0.278431
0.043137 0.254902 0.278431
0.286275 0.266667 0.243137
0.450980 0.172549 0.137255
0.615686 0.180392 0.047059
0.776471 0.223529 0.000000
0.917647 0.282353 0.000000
1.000000 0.309804 0.000000
0.000000 0.435294 0.396078
0.000000 0.435294 0.317647
0.160784 0.435294 0.145098
0.450980 0.447059 0.137255
0.615686 0.439216 0.047059
0.776471 0.466667 0.000000
0.917647 0.505882 0.000000
1.000000 0.529412 0.000000
0.000000 0.600000 0.443137
0.000000 0.600000 0.349020
0.054902 0.600000 0.133333
0.250980 0.600000 0.054902
0.529412 0.615686 0.047059
0.776471 0.713725 0.000000
0.917647 0.737255 0.000000
1.000000 0.749020 0.000000
0.000000 0.752941 0.486275
0.000000 0.752941 0.388235
0.000000 0.752941 0.172549
0.082353 0.752941 0.000000
0.341176 0.752941 0.000000
0.600000 0.776471 0.000000
0.878431 0.917647 0.000000
1.000000 0.964706 0.000000
0.000000 0.894118 0.529412
0.000000 0.894118 0.423529
0.000000 0.894118 0.235294
0.000000 0.894118 0.000000
0.239216 0.894118 0.000000
0.466667 0.894118 0.000000
0.682353 0.917647 0.000000
0.843137 1.000000 0.000000
0.000000 1.000000 0.560784
0.000000 1.000000 0.450980
0.000000 1.000000 0.274510
0.000000 1.000000 0.050980
0.180392 1.000000 0.000000
0.396078 1.000000 0.000000
0.588235 1.000000 0.000000
0.701961 1.000000 0.000000
0.125490 0.000000 0.419608
0.254902 0.000000 0.419608
0.407843 0.000000 0.419608
0.450980 0.000000 0.286275
0.615686 0.000000 0.231373
0.776471 0.000000 0.184314
0.917647 0.000000 0.141176
1.000000 0.000000 0.113725
0.000000 0.000000 0.419608
0.125490 0.000000 0.419608
0.345098 0.000000 0.419608
0.450980 0.000000 0.278431
0.615686 0.000000 0.184314
0.776471 0.000000 0.113725
0.917647 0.000000 0.062745
1.000000 0.000000 0.031373
0.000000 0.145098 0.419608
0.000000 0.090196 0.419608
0.192157 0.168627 0.419608
0.450980 0.149020 0.384314
0.615686 0.058824 0.188235
0.776471 0.000000 0.019608
0.917647 0.062745 0.000000
1.000000 0.098039 0.000000
0.000000 0.321569 0.435294
0.000000 0.333333 0.435294
0.172549 0.435294 0.415686
0.450980 0.415686 0.384314
0.615686 0.298039 0.266667
0.776471 0.270588 0.176471
0.917647 0.278431 0.101961
1.000000 0.286275 0.058824
0.000000 0.600000 0.596078
0.000000 0.600000 0.549020
0.082353 0.600000 0.392157
0.329412 0.600000 0.278431
0.615686 0.588235 0.266667
0.776471 0.541176 0.176471
0.917647 0.545098 0.101961
1.000000 0.552941 0.058824
0.000000 0.752941 0.643137
0.000000 0.752941 0.572549
0.000000 0.752941 0.407843
0.188235 0.752941 0.196078
0.466667 0.752941 0.188235
0.749020 0.776471 0.176471
0.917647 0.800000 0.101961
1.000000 0.807843 0.058824
0.000000 0.894118 0.682353
0.000000 0.894118 0.603922
0.000000 0.894118 0.450980
0.113725 0.894118 0.203922
0.298039 0.894118 0.113725
0.560784 0.894118 0.113725
0.803922 0.917647 0.101961
0.964706 1.000000 0.058824
0.000000 1.000000 0.713725
0.000000 1.000000 0.631373
0.000000 1.000000 0.482353
0.058824 1.000000 0.215686
0.172549 1.000000 0.058824
0.431373 1.000000 0.058824
0.662745 1.000000 0.058824
0.792157 1.000000 0.058824
0.172549 0.000000 0.580392
0.301961 0.000000 0.580392
0.454902 0.000000 0.580392
0.580392 0.000000 0.537255
0.615686 0.000000 0.392157
0.776471 0.000000 0.341176
0.917647 0.000000 0.298039
1.000000 0.000000 0.274510
0.050980 0.000000 0.580392
0.180392 0.000000 0.580392
0.372549 0.000000 0.580392
0.580392 0.000000 0.572549
0.615686 0.000000 0.384314
0.776471 0.000000 0.305882
0.917647 0.000000 0.247059
1.000000 0.000000 0.215686
0.000000 0.098039 0.580392
0.000000 0.011765 0.580392
0.180392 0.078431 0.580392
0.450980 0.078431 0.580392
0.615686 0.058824 0.447059
0.776471 0.000000 0.262745
0.917647 0.000000 0.164706
1.000000 0.000000 0.121569
0.000000 0.258824 0.580392
0.000000 0.219608 0.580392
0.094118 0.266667 0.580392
0.341176 0.313725 0.580392
0.615686 0.290196 0.545098
0.776471 0.196078 0.384314
0.917647 0.121569 0.219608
1.000000 0.078431 0.121569
0.000000 0.439216 0.600000
0.000000 0.443137 0.600000
0.082353 0.541176 0.600000
0.325490 0.600000 0.560784
0.615686 0.572549 0.529412
0.776471 0.447059 0.411765
0.917647 0.388235 0.325490
1.000000 0.372549 0.282353
0.000000 0.705882 0.752941
0.000000 0.741176 0.752941
0.000000 0.752941 0.658824
0.231373 0.752941 0.486275
0.498039 0.752941 0.427451
0.776471 0.737255 0.411765
0.917647 0.658824 0.325490
1.000000 0.639216 0.282353
0.000000 0.894118 0.843137
0.000000 0.894118 0.792157
0.000000 0.894118 0.682353
0.152941 0.894118 0.478431
0.388235 0.894118 0.341176
0.670588 0.894118 0.341176
0.917647 0.905882 0.325490
1.000000 0.878431 0.282353
0.000000 1.000000 0.874510
0.000000 1.000000 0.811765
0.000000 1.000000 0.705882
0.098039 1.000000 0.482353
0.286275 1.000000 0.282353
0.560784 1.000000 0.282353
0.800000 1.000000 0.282353
0.941176 1.000000 0.282353
0.219608 0.000000 0.733333
0.345098 0.000000 0.733333
0.498039 0.000000 0.733333
0.666667 0.000000 0.733333
0.733333 0.000000 0.627451
0.776471 0.000000 0.498039
0.917647 0.000000 0.454902
1.000000 0.000000 0.427451
0.098039 0.000000 0.733333
0.223529 0.000000 0.733333
0.407843 0.000000 0.733333
0.607843 0.000000 0.733333
0.733333 0.000000 0.650980
0.776471 0.000000 0.490196
0.917647 0.000000 0.423529
1.000000 0.000000 0.392157
0.000000 0.050980 0.733333
0.047059 0.000000 0.733333
0.200000 0.000000 0.733333
0.462745 0.000000 0.733333
0.729412 0.000000 0.733333
0.776471 0.000000 0.501961
0.917647 0.000000 0.384314
1.000000 0.000000 0.333333
0.000000 0.211765 0.733333
0.000000 0.149020 0.733333
0.011765 0.078431 0.733333
0.282353 0.223529 0.733333
0.568627 0.223529 0.733333
0.776471 0.196078 0.643137
0.917647 0.121569 0.474510
1.000000 0.078431 0.372549
0.000000 0.376471 0.733333
0.000000 0.349020 0.733333
0.011765 0.341176 0.733333
0.243137 0.474510 0.733333
0.509804 0.474510 0.733333
0.776471 0.443137 0.694118
0.917647 0.356863 0.572549
1.000000 0.309804 0.494118
0.000000 0.552941 0.752941
0.000000 0.556863 0.752941
0.000000 0.603922 0.752941
0.231373 0.752941 0.749020
0.490196 0.752941 0.709804
0.776471 0.725490 0.674510
0.917647 0.607843 0.564706
1.000000 0.552941 0.509804
0.000000 0.792157 0.894118
0.000000 0.819608 0.894118
0.000000 0.882353 0.894118
0.152941 0.894118 0.733333
0.400000 0.894118 0.607843
0.666667 0.894118 0.580392
0.917647 0.874510 0.564706
1.000000 0.807843 0.509804
0.000000 0.972549 1.000000
0.000000 1.000000 0.988235
0.000000 1.000000 0.921569
0.098039 1.000000 0.733333
0.337255 1.000000 0.568627
0.592157 1.000000 0.509804
0.850980 1.000000 0.509804
1.000000 1.000000 0.509804
0.262745 0.000000 0.870588
0.388235 0.000000 0.870588
0.541176 0.000000 0.870588
0.705882 0.000000 0.870588
0.870588 0.000000 0.866667
0.870588 0.000000 0.705882
0.917647 0.000000 0.596078
1.000000 0.000000 0.568627
0.137255 0.000000 0.870588
0.266667 0.000000 0.870588
0.443137 0.000000 0.870588
0.635294 0.000000 0.870588
0.835294 0.000000 0.870588
0.870588 0.000000 0.721569
0.917647 0.000000 0.588235
1.000000 0.000000 0.552941
0.000000 0.007843 0.870588
0.094118 0.000000 0.870588
0.262745 0.000000 0.870588
0.501961 0.000000 0.870588
0.749020 0.000000 0.870588
0.870588 0.000000 0.760784
0.917647 0.000000 0.584314
1.000000 0.000000 0.525490
0.000000 0.168627 0.870588
0.000000 0.094118 0.870588
0.023529 0.000000 0.870588
0.278431 0.145098 0.870588
0.556863 0.145098 0.870588
0.823529 0.145098 0.870588
0.917647 0.121569 0.701961
1.000000 0.078431 0.600000
0.000000 0.333333 0.870588
0.000000 0.286275 0.870588
0.000000 0.219608 0.870588
0.168627 0.317647 0.870588
0.423529 0.384314 0.870588
0.709804 0.384314 0.870588
0.917647 0.356863 0.819608
1.000000 0.309804 0.733333
0.000000 0.490196 0.870588
0.000000 0.470588 0.870588
0.000000 0.454902 0.870588
0.168627 0.580392 0.870588
0.411765 0.658824 0.870588
0.678431 0.635294 0.870588
0.917647 0.600000 0.827451
1.000000 0.545098 0.760784
0.000000 0.650980 0.894118
0.000000 0.654902 0.894118
0.000000 0.674510 0.894118
0.152941 0.827451 0.894118
0.400000 0.894118 0.858824
0.654902 0.894118 0.847059
0.917647 0.862745 0.807843
1.000000 0.788235 0.737255
0.000000 0.831373 1.000000
0.000000 0.847059 1.000000
0.000000 0.886275 1.000000
0.098039 1.000000 0.964706
0.337255 1.000000 0.811765
0.580392 1.000000 0.760784
0.831373 1.000000 0.737255
1.000000 1.000000 0.737255
0.298039 0.000000 0.988235
0.423529 0.000000 0.988235
0.576471 0.000000 0.988235
0.741176 0.000000 0.988235
0.909804 0.000000 0.988235
0.988235 0.000000 0.905882
0.988235 0.000000 0.764706
1.000000 0.000000 0.690196
0.172549 0.000000 0.988235
0.301961 0.000000 0.988235
0.474510 0.000000 0.988235
0.662745 0.000000 0.988235
0.854902 0.000000 0.988235
0.988235 0.000000 0.937255
0.988235 0.000000 0.772549
1.000000 0.000000 0.686275
0.027451 0.000000 0.988235
0.133333 0.000000 0.988235
0.305882 0.000000 0.988235
0.533333 0.000000 0.988235
0.764706 0.000000 0.988235
0.988235 0.000000 0.988235
0.988235 0.000000 0.792157
1.000000 0.000000 0.686275
0.000000 0.133333 0.988235
0.000000 0.050980 0.988235
0.082353 0.000000 0.988235
0.290196 0.082353 0.988235
0.564706 0.082353 0.988235
0.823529 0.082353 0.988235
0.988235 0.082353 0.921569
1.000000 0.078431 0.792157
0.000000 0.298039 0.988235
0.000000 0.239216 0.988235
0.000000 0.149020 0.988235
0.105882 0.180392 0.988235
0.388235 0.313725 0.988235
0.662745 0.313725 0.988235
0.909804 0.313725 0.988235
1.000000 0.309804 0.937255
0.000000 0.454902 0.988235
0.000000 0.419608 0.988235
0.000000 0.368627 0.988235
0.105882 0.435294 0.988235
0.345098 0.552941 0.988235
0.596078 0.552941 0.988235
0.858824 0.552941 0.988235
1.000000 0.545098 0.980392
0.000000 0.596078 0.988235
0.000000 0.584314 0.988235
0.000000 0.564706 0.988235
0.105882 0.666667 0.988235
0.345098 0.796078 0.988235
0.588235 0.811765 0.988235
0.839216 0.788235 0.988235
1.000000 0.780392 0.976471
0.000000 0.709804 1.000000
0.000000 0.713725 1.000000
0.000000 0.721569 1.000000
0.098039 0.843137 1.000000
0.337255 0.984314 1.000000
0.580392 1.000000 0.980392
0.819608 1.000000 0.976471
1.000000 1.000000 0.968627
