assets/vibrant_glow_grade.cube
TITLE "vibrant glow grade (bug-59)"
COMMENT "Derived from the 960x540 gradient-tile reference: warm S-curve contrast, ~1.5x vibrance saturation, +18deg saturation-gated hue shift."
LUT_3D_SIZE 4
DOMAIN_MIN 0.0 0.0 0.0
DOMAIN_MAX 1.0 1.0 1.0
0.011765 0.011765 0.011765
0.341176 0.101961 0.000000
0.725490 0.215686 0.000000
1.000000 0.301961 0.000000
0.000000 0.329412 0.098039
0.250980 0.341176 0.000000
0.725490 0.541176 0.000000
1.000000 0.623529 0.000000
0.000000 0.701961 0.211765
0.121569 0.701961 0.000000
0.529412 0.725490 0.000000
1.000000 1.000000 0.000000
0.000000 1.000000 0.298039
0.031373 1.000000 0.000000
0.423529 1.000000 0.000000
0.698039 1.000000 0.000000
0.094118 0.000000 0.317647
0.341176 0.000000 0.215686
0.725490 0.000000 0.094118
1.000000 0.000000 0.011765
0.000000 0.243137 0.329412
0.341176 0.313725 0.290196
0.725490 0.211765 0.058824
1.000000 0.301961 0.000000
0.000000 0.701961 0.521569
0.070588 0.701961 0.156863
0.623529 0.725490 0.058824
1.000000 0.850980 0.000000
0.000000 1.000000 0.611765
0.000000 1.000000 0.250980
0.313725 1.000000 0.000000
0.713725 1.000000 0.000000
0.203922 0.000000 0.682353
0.537255 0.000000 0.682353
0.725490 0.000000 0.462745
1.000000 0.000000 0.376471
0.000000 0.117647 0.682353
0.211765 0.098039 0.682353
0.725490 0.074510 0.529412
1.000000 0.000000 0.247059
0.000000 0.513725 0.701961
0.101961 0.639216 0.701961
0.725490 0.674510 0.627451
1.000000 0.482353 0.435294
0.000000 1.000000 0.976471
0.000000 1.000000 0.792157
0.501961 1.000000 0.435294
0.992157 1.000000 0.435294
0.298039 0.000000 0.988235
0.631373 0.000000 0.988235
0.988235 0.000000 0.960784
1.000000 0.000000 0.690196
0.000000 0.023529 0.988235
0.290196 0.000000 0.988235
0.870588 0.000000 0.988235
1.000000 0.000000 0.701961
0.000000 0.403922 0.988235
0.000000 0.286275 0.988235
0.513725 0.474510 0.988235
1.000000 0.466667 0.976471
0.000000 0.709804 1.000000
0.000000 0.741176 1.000000
0.498039 1.000000 0.980392
1.000000 1.000000 0.968627
