assets/vibrant_glow_grade.cube
TITLE "vibrant glow grade (bug-59)"
COMMENT "Derived from the 960x540 gradient-tile reference: warm S-curve contrast, ~1.5x vibrance saturation, +18deg saturation-gated hue shift."
LUT_3D_SIZE 64
DOMAIN_MIN 0.0 0.0 0.0
DOMAIN_MAX 1.0 1.0 1.0
0.011765 0.011765 0.011765
0.023529 0.007843 0.003922
0.035294 0.011765 0.000000
0.050980 0.015686 0.000000
0.062745 0.019608 0.000000
0.078431 0.023529 0.000000
0.090196 0.027451 0.000000
0.105882 0.031373 0.000000
0.121569 0.035294 0.000000
0.137255 0.039216 0.000000
0.152941 0.047059 0.000000
0.168627 0.050980 0.000000
0.184314 0.054902 0.000000
0.200000 0.058824 0.000000
0.215686 0.066667 0.000000
0.235294 0.070588 0.000000
0.250980 0.074510 0.000000
0.270588 0.082353 0.000000
0.286275 0.086275 0.000000
0.305882 0.090196 0.000000
0.321569 0.098039 0.000000
0.341176 0.101961 0.000000
0.356863 0.105882 0.000000
0.376471 0.113725 0.000000
0.396078 0.117647 0.000000
0.411765 0.125490 0.000000
0.431373 0.129412 0.000000
0.450980 0.133333 0.000000
0.470588 0.141176 0.000000
0.486275 0.145098 0.000000
0.505882 0.152941 0.000000
0.525490 0.156863 0.000000
0.545098 0.164706 0.000000
0.560784 0.168627 0.000000
0.580392 0.172549 0.000000
0.600000 0.180392 0.000000
0.615686 0.184314 0.000000
0.635294 0.192157 0.000000
0.654902 0.196078 0.000000
0.670588 0.200000 0.000000
0.690196 0.207843 0.000000
0.705882 0.211765 0.000000
0.725490 0.215686 0.000000
0.741176 0.223529 0.000000
0.760784 0.227451 0.000000
0.776471 0.231373 0.000000
0.792157 0.239216 0.000000
0.811765 0.243137 0.000000
0.827451 0.247059 0.000000
0.843137 0.250980 0.000000
0.858824 0.258824 0.000000
0.874510 0.262745 0.000000
0.890196 0.266667 0.000000
0.901961 0.270588 0.000000
0.917647 0.274510 0.000000
0.933333 0.278431 0.000000
0.945098 0.282353 0.000000
0.960784 0.286275 0.000000
0.972549 0.290196 0.000000
0.984314 0.294118 0.000000
0.996078 0.298039 0.000000
1.000000 0.301961 0.000000
1.000000 0.301961 0.000000
1.000000 0.301961 0.000000
0.003922 0.023529 0.007843
0.019608 0.023529 0.003922
0.035294 0.027451 0.000000
0.050980 0.031373 0.000000
0.062745 0.035294 0.000000
0.078431 0.035294 0.000000
0.090196 0.039216 0.000000
0.105882 0.047059 0.000000
0.121569 0.050980 0.000000
0.137255 0.054902 0.000000
0.152941 0.058824 0.000000
0.168627 0.062745 0.000000
0.184314 0.066667 0.000000
0.200000 0.074510 0.000000
0.215686 0.078431 0.000000
0.235294 0.082353 0.000000
0.250980 0.086275 0.000000
0.270588 0.094118 0.000000
0.286275 0.098039 0.000000
0.305882 0.101961 0.000000
0.321569 0.109804 0.000000
0.341176 0.113725 0.000000
0.356863 0.121569 0.000000
0.376471 0.125490 0.000000
0.396078 0.129412 0.000000
0.411765 0.137255 0.000000
0.431373 0.141176 0.000000
0.450980 0.149020 0.000000
0.470588 0.152941 0.000000
0.486275 0.156863 0.000000
0.505882 0.164706 0.000000
0.525490 0.168627 0.000000
0.545098 0.176471 0.000000
0.560784 0.180392 0.000000
0.580392 0.188235 0.000000
0.600000 0.192157 0.000000
0.615686 0.196078 0.000000
0.635294 0.203922 0.000000
0.654902 0.207843 0.000000
0.670588 0.215686 0.000000
0.690196 0.219608 0.000000
0.705882 0.223529 0.000000
0.725490 0.231373 0.000000
0.741176 0.235294 0.000000
0.760784 0.239216 0.000000
0.776471 0.247059 0.000000
0.792157 0.250980 0.000000
0.811765 0.254902 0.000000
0.827451 0.258824 0.000000
0.843137 0.266667 0.000000
0.858824 0.270588 0.000000
0.874510 0.274510 0.000000
0.890196 0.278431 0.000000
0.901961 0.282353 0.000000
0.917647 0.286275 0.000000
0.933333 0.290196 0.000000
0.945098 0.294118 0.000000
0.960784 0.301961 0.000000
0.972549 0.301961 0.000000
0.984314 0.305882 0.000000
0.996078 0.309804 0.000000
1.000000 0.313725 0.000000
1.000000 0.313725 0.000000
1.000000 0.313725 0.000000
0.000000 0.035294 0.011765
0.007843 0.035294 0.000000
0.027451 0.035294 0.000000
0.050980 0.047059 0.000000
0.062745 0.047059 0.000000
0.078431 0.050980 0.000000
0.090196 0.054902 0.000000
0.105882 0.058824 0.000000
0.121569 0.062745 0.000000
0.137255 0.066667 0.000000
0.152941 0.070588 0.000000
0.168627 0.078431 0.000000
0.184314 0.082353 0.000000
0.200000 0.086275 0.000000
0.215686 0.090196 0.000000
0.235294 0.094118 0.000000
0.250980 0.101961 0.000000
0.270588 0.105882 0.000000
0.286275 0.109804 0.000000
0.305882 0.117647 0.000000
0.321569 0.121569 0.000000
0.341176 0.125490 0.000000
0.356863 0.133333 0.000000
0.376471 0.137255 0.000000
0.396078 0.145098 0.000000
0.411765 0.149020 0.000000
0.431373 0.152941 0.000000
0.450980 0.160784 0.000000
0.470588 0.164706 0.000000
0.486275 0.172549 0.000000
0.505882 0.176471 0.000000
0.525490 0.184314 0.000000
0.545098 0.188235 0.000000
0.560784 0.192157 0.000000
0.580392 0.200000 0.000000
0.600000 0.203922 0.000000
0.615686 0.211765 0.000000
0.635294 0.215686 0.000000
0.654902 0.219608 0.000000
0.670588 0.227451 0.000000
0.690196 0.231373 0.000000
0.705882 0.235294 0.000000
0.725490 0.243137 0.000000
0.741176 0.247059 0.000000
0.760784 0.250980 0.000000
0.776471 0.258824 0.000000
0.792157 0.262745 0.000000
0.811765 0.266667 0.000000
0.827451 0.274510 0.000000
0.843137 0.278431 0.000000
0.858824 0.282353 0.000000
0.874510 0.286275 0.000000
0.890196 0.290196 0.000000
0.901961 0.294118 0.000000
0.917647 0.301961 0.000000
0.933333 0.305882 0.000000
0.945098 0.309804 0.000000
0.960784 0.313725 0.000000
0.972549 0.317647 0.000000
0.984314 0.321569 0.000000
0.996078 0.325490 0.000000
1.000000 0.325490 0.000000
1.000000 0.325490 0.000000
1.000000 0.325490 0.000000
0.000000 0.047059 0.015686
0.000000 0.047059 0.000000
0.019608 0.047059 0.000000
0.035294 0.050980 0.000000
0.062745 0.062745 0.000000
0.078431 0.066667 0.000000
0.090196 0.070588 0.000000
0.105882 0.074510 0.000000
0.121569 0.078431 0.000000
0.137255 0.082353 0.000000
0.152941 0.086275 0.000000
0.168627 0.090196 0.000000
0.184314 0.094118 0.000000
0.200000 0.098039 0.000000
0.215686 0.105882 0.000000
0.235294 0.109804 0.000000
0.250980 0.113725 0.000000
0.270588 0.117647 0.000000
0.286275 0.125490 0.000000
0.305882 0.129412 0.000000
0.321569 0.133333 0.000000
0.341176 0.141176 0.000000
0.356863 0.145098 0.000000
0.376471 0.152941 0.000000
0.396078 0.156863 0.000000
0.411765 0.160784 0.000000
0.431373 0.168627 0.000000
0.450980 0.172549 0.000000
0.470588 0.180392 0.000000
0.486275 0.184314 0.000000
0.505882 0.188235 0.000000
0.525490 0.196078 0.000000
0.545098 0.200000 0.000000
0.560784 0.207843 0.000000
0.580392 0.211765 0.000000
0.600000 0.219608 0.000000
0.615686 0.223529 0.000000
0.635294 0.227451 0.000000
0.654902 0.235294 0.000000
0.670588 0.239216 0.000000
0.690196 0.243137 0.000000
0.705882 0.250980 0.000000
0.725490 0.254902 0.000000
0.741176 0.258824 0.000000
0.760784 0.266667 0.000000
0.776471 0.270588 0.000000
0.792157 0.274510 0.000000
0.811765 0.282353 0.000000
0.827451 0.286275 0.000000
0.843137 0.290196 0.000000
0.858824 0.294118 0.000000
0.874510 0.298039 0.000000
0.890196 0.305882 0.000000
0.901961 0.309804 0.000000
0.917647 0.313725 0.000000
0.933333 0.317647 0.000000
0.945098 0.321569 0.000000
0.960784 0.325490 0.000000
0.972549 0.329412 0.000000
0.984314 0.333333 0.000000
0.996078 0.337255 0.000000
1.000000 0.337255 0.000000
1.000000 0.337255 0.000000
1.000000 0.337255 0.000000
0.000000 0.062745 0.019608
0.000000 0.062745 0.003922
0.011765 0.062745 0.000000
0.027451 0.062745 0.000000
0.047059 0.062745 0.000000
0.070588 0.078431 0.000000
0.090196 0.086275 0.000000
0.105882 0.086275 0.000000
0.121569 0.090196 0.000000
0.137255 0.094118 0.000000
0.152941 0.098039 0.000000
0.168627 0.105882 0.000000
0.184314 0.109804 0.000000
0.200000 0.113725 0.000000
0.215686 0.117647 0.000000
0.235294 0.121569 0.000000
0.250980 0.129412 0.000000
0.270588 0.133333 0.000000
0.286275 0.137255 0.000000
0.305882 0.145098 0.000000
0.321569 0.149020 0.000000
0.341176 0.152941 0.000000
0.356863 0.160784 0.000000
0.376471 0.164706 0.000000
0.396078 0.168627 0.000000
0.411765 0.176471 0.000000
0.431373 0.180392 0.000000
0.450980 0.188235 0.000000
0.470588 0.192157 0.000000
0.486275 0.196078 0.000000
0.505882 0.203922 0.000000
0.525490 0.207843 0.000000
0.545098 0.215686 0.000000
0.560784 0.219608 0.000000
0.580392 0.227451 0.000000
0.600000 0.231373 0.000000
0.615686 0.235294 0.000000
0.635294 0.243137 0.000000
0.654902 0.247059 0.000000
0.670588 0.250980 0.000000
0.690196 0.258824 0.000000
0.705882 0.262745 0.000000
0.725490 0.270588 0.000000
0.741176 0.274510 0.000000
0.760784 0.278431 0.000000
0.776471 0.282353 0.000000
0.792157 0.290196 0.000000
0.811765 0.294118 0.000000
0.827451 0.298039 0.000000
0.843137 0.301961 0.000000
0.858824 0.309804 0.000000
0.874510 0.313725 0.000000
0.890196 0.317647 0.000000
0.901961 0.321569 0.000000
0.917647 0.325490 0.000000
0.933333 0.329412 0.000000
0.945098 0.333333 0.000000
0.960784 0.337255 0.000000
0.972549 0.341176 0.000000
0.984314 0.345098 0.000000
0.996078 0.349020 0.000000
1.000000 0.352941 0.000000
1.000000 0.352941 0.000000
1.000000 0.352941 0.000000
0.000000 0.074510 0.023529
0.000000 0.074510 0.007843
0.007843 0.074510 0.000000
0.023529 0.074510 0.000000
0.039216 0.074510 0.000000
0.054902 0.078431 0.000000
0.082353 0.090196 0.000000
0.105882 0.101961 0.000000
0.121569 0.105882 0.000000
0.137255 0.109804 0.000000
0.152941 0.113725 0.000000
0.168627 0.117647 0.000000
0.184314 0.121569 0.000000
0.200000 0.129412 0.000000
0.215686 0.133333 0.000000
0.235294 0.137255 0.000000
0.250980 0.141176 0.000000
0.270588 0.149020 0.000000
0.286275 0.152941 0.000000
0.305882 0.156863 0.000000
0.321569 0.164706 0.000000
0.341176 0.168627 0.000000
0.356863 0.172549 0.000000
0.376471 0.180392 0.000000
0.396078 0.184314 0.000000
0.411765 0.188235 0.000000
0.431373 0.196078 0.000000
0.450980 0.200000 0.000000
0.470588 0.207843 0.000000
0.486275 0.211765 0.000000
0.505882 0.215686 0.000000
0.525490 0.223529 0.000000
0.545098 0.227451 0.000000
0.560784 0.235294 0.000000
0.580392 0.239216 0.000000
0.600000 0.243137 0.000000
0.615686 0.250980 0.000000
0.635294 0.254902 0.000000
0.654902 0.262745 0.000000
0.670588 0.266667 0.000000
0.690196 0.270588 0.000000
0.705882 0.278431 0.000000
0.725490 0.282353 0.000000
0.741176 0.286275 0.000000
0.760784 0.294118 0.000000
0.776471 0.298039 0.000000
0.792157 0.301961 0.000000
0.811765 0.309804 0.000000
0.827451 0.313725 0.000000
0.843137 0.317647 0.000000
0.858824 0.321569 0.000000
0.874510 0.325490 0.000000
0.890196 0.333333 0.000000
0.901961 0.337255 0.000000
0.917647 0.341176 0.000000
0.933333 0.345098 0.000000
0.945098 0.349020 0.000000
0.960784 0.352941 0.000000
0.972549 0.356863 0.000000
0.984314 0.360784 0.000000
0.996078 0.364706 0.000000
1.000000 0.364706 0.000000
1.000000 0.364706 0.000000
1.000000 0.364706 0.000000
0.000000 0.090196 0.027451
0.000000 0.090196 0.011765
0.003922 0.090196 0.000000
0.015686 0.090196 0.000000
0.031373 0.090196 0.000000
0.047059 0.090196 0.000000
0.066667 0.090196 0.000000
0.094118 0.105882 0.000000
0.121569 0.121569 0.000000
0.137255 0.125490 0.000000
0.152941 0.129412 0.000000
0.168627 0.133333 0.000000
0.184314 0.137255 0.000000
0.200000 0.141176 0.000000
0.215686 0.149020 0.000000
0.235294 0.152941 0.000000
0.250980 0.156863 0.000000
0.270588 0.160784 0.000000
0.286275 0.168627 0.000000
0.305882 0.172549 0.000000
0.321569 0.176471 0.000000
0.341176 0.184314 0.000000
0.356863 0.188235 0.000000
0.376471 0.192157 0.000000
0.396078 0.200000 0.000000
0.411765 0.203922 0.000000
0.431373 0.207843 0.000000
0.450980 0.215686 0.000000
0.470588 0.219608 0.000000
0.486275 0.227451 0.000000
0.505882 0.231373 0.000000
0.525490 0.235294 0.000000
0.545098 0.243137 0.000000
0.560784 0.247059 0.000000
0.580392 0.254902 0.000000
0.600000 0.258824 0.000000
0.615686 0.262745 0.000000
0.635294 0.270588 0.000000
0.654902 0.274510 0.000000
0.670588 0.282353 0.000000
0.690196 0.286275 0.000000
0.705882 0.290196 0.000000
0.725490 0.298039 0.000000
0.741176 0.301961 0.000000
0.760784 0.305882 0.000000
0.776471 0.313725 0.000000
0.792157 0.317647 0.000000
0.811765 0.321569 0.000000
0.827451 0.325490 0.000000
0.843137 0.333333 0.000000
0.858824 0.337255 0.000000
0.874510 0.341176 0.000000
0.890196 0.345098 0.000000
0.901961 0.349020 0.000000
0.917647 0.352941 0.000000
0.933333 0.356863 0.000000
0.945098 0.360784 0.000000
0.960784 0.364706 0.000000
0.972549 0.368627 0.000000
0.984314 0.372549 0.000000
0.996078 0.376471 0.000000
1.000000 0.380392 0.000000
1.000000 0.380392 0.000000
1.000000 0.380392 0.000000
0.000000 0.101961 0.031373
0.000000 0.101961 0.015686
0.000000 0.101961 0.003922
0.011765 0.101961 0.000000
0.027451 0.101961 0.000000
0.043137 0.101961 0.000000
0.058824 0.101961 0.000000
0.078431 0.105882 0.000000
0.105882 0.121569 0.000000
0.133333 0.137255 0.000000
0.152941 0.145098 0.000000
0.168627 0.149020 0.000000
0.184314 0.152941 0.000000
0.200000 0.156863 0.000000
0.215686 0.160784 0.000000
0.235294 0.168627 0.000000
0.250980 0.172549 0.000000
0.270588 0.176471 0.000000
0.286275 0.180392 0.000000
0.305882 0.188235 0.000000
0.321569 0.192157 0.000000
0.341176 0.196078 0.000000
0.356863 0.203922 0.000000
0.376471 0.207843 0.000000
0.396078 0.211765 0.000000
0.411765 0.219608 0.000000
0.431373 0.223529 0.000000
0.450980 0.231373 0.000000
0.470588 0.235294 0.000000
0.486275 0.239216 0.000000
0.505882 0.247059 0.000000
0.525490 0.250980 0.000000
0.545098 0.258824 0.000000
0.560784 0.262745 0.000000
0.580392 0.266667 0.000000
0.600000 0.274510 0.000000
0.615686 0.278431 0.000000
0.635294 0.286275 0.000000
0.654902 0.290196 0.000000
0.670588 0.294118 0.000000
0.690196 0.301961 0.000000
0.705882 0.305882 0.000000
0.725490 0.309804 0.000000
0.741176 0.317647 0.000000
0.760784 0.321569 0.000000
0.776471 0.325490 0.000000
0.792157 0.333333 0.000000
0.811765 0.337255 0.000000
0.827451 0.341176 0.000000
0.843137 0.345098 0.000000
0.858824 0.349020 0.000000
0.874510 0.356863 0.000000
0.890196 0.360784 0.000000
0.901961 0.364706 0.000000
0.917647 0.368627 0.000000
0.933333 0.372549 0.000000
0.945098 0.376471 0.000000
0.960784 0.380392 0.000000
0.972549 0.384314 0.000000
0.984314 0.388235 0.000000
0.996078 0.392157 0.000000
1.000000 0.392157 0.000000
1.000000 0.392157 0.000000
1.000000 0.392157 0.000000
0.000000 0.117647 0.035294
0.000000 0.117647 0.023529
0.000000 0.117647 0.007843
0.007843 0.117647 0.000000
0.023529 0.117647 0.000000
0.039216 0.117647 0.000000
0.054902 0.117647 0.000000
0.070588 0.117647 0.000000
0.090196 0.121569 0.000000
0.117647 0.137255 0.000000
0.145098 0.152941 0.000000
0.168627 0.164706 0.000000
0.184314 0.168627 0.000000
0.200000 0.172549 0.000000
0.215686 0.176471 0.000000
0.235294 0.180392 0.000000
0.250980 0.188235 0.000000
0.270588 0.192157 0.000000
0.286275 0.196078 0.000000
0.305882 0.200000 0.000000
0.321569 0.207843 0.000000
0.341176 0.211765 0.000000
0.356863 0.215686 0.000000
0.376471 0.223529 0.000000
0.396078 0.227451 0.000000
0.411765 0.235294 0.000000
0.431373 0.239216 0.000000
0.450980 0.243137 0.000000
0.470588 0.250980 0.000000
0.486275 0.254902 0.000000
0.505882 0.262745 0.000000
0.525490 0.266667 0.000000
0.545098 0.270588 0.000000
0.560784 0.278431 0.000000
0.580392 0.282353 0.000000
0.600000 0.290196 0.000000
0.615686 0.294118 0.000000
0.635294 0.298039 0.000000
0.654902 0.305882 0.000000
0.670588 0.309804 0.000000
0.690196 0.313725 0.000000
0.705882 0.321569 0.000000
0.725490 0.325490 0.000000
0.741176 0.329412 0.000000
0.760784 0.337255 0.000000
0.776471 0.341176 0.000000
0.792157 0.345098 0.000000
0.811765 0.352941 0.000000
0.827451 0.356863 0.000000
0.843137 0.360784 0.000000
0.858824 0.364706 0.000000
0.874510 0.368627 0.000000
0.890196 0.376471 0.000000
0.901961 0.380392 0.000000
0.917647 0.384314 0.000000
0.933333 0.388235 0.000000
0.945098 0.392157 0.000000
0.960784 0.396078 0.000000
0.972549 0.400000 0.000000
0.984314 0.403922 0.000000
0.996078 0.407843 0.000000
1.000000 0.407843 0.000000
1.000000 0.407843 0.000000
1.000000 0.407843 0.000000
0.000000 0.133333 0.039216
0.000000 0.133333 0.027451
0.000000 0.133333 0.011765
0.003922 0.133333 0.000000
0.015686 0.133333 0.000000
0.031373 0.133333 0.000000
0.047059 0.133333 0.000000
0.062745 0.133333 0.000000
0.078431 0.133333 0.000000
0.098039 0.137255 0.000000
0.129412 0.152941 0.000000
0.156863 0.168627 0.000000
0.184314 0.184314 0.000000
0.200000 0.188235 0.000000
0.215686 0.192157 0.000000
0.235294 0.196078 0.000000
0.250980 0.203922 0.000000
0.270588 0.207843 0.000000
0.286275 0.211765 0.000000
0.305882 0.215686 0.000000
0.321569 0.223529 0.000000
0.341176 0.227451 0.000000
0.356863 0.231373 0.000000
0.376471 0.239216 0.000000
0.396078 0.243137 0.000000
0.411765 0.247059 0.000000
0.431373 0.254902 0.000000
0.450980 0.258824 0.000000
0.470588 0.266667 0.000000
0.486275 0.270588 0.000000
0.505882 0.274510 0.000000
0.525490 0.282353 0.000000
0.545098 0.286275 0.000000
0.560784 0.294118 0.000000
0.580392 0.298039 0.000000
0.600000 0.301961 0.000000
0.615686 0.309804 0.000000
0.635294 0.313725 0.000000
0.654902 0.321569 0.000000
0.670588 0.325490 0.000000
0.690196 0.329412 0.000000
0.705882 0.337255 0.000000
0.725490 0.341176 0.000000
0.741176 0.345098 0.000000
0.760784 0.352941 0.000000
0.776471 0.356863 0.000000
0.792157 0.360784 0.000000
0.811765 0.364706 0.000000
0.827451 0.372549 0.000000
0.843137 0.376471 0.000000
0.858824 0.380392 0.000000
0.874510 0.384314 0.000000
0.890196 0.388235 0.000000
0.901961 0.392157 0.000000
0.917647 0.400000 0.000000
0.933333 0.403922 0.000000
0.945098 0.407843 0.000000
0.960784 0.411765 0.000000
0.972549 0.415686 0.000000
0.984314 0.419608 0.000000
0.996078 0.423529 0.000000
1.000000 0.423529 0.000000
1.000000 0.423529 0.000000
1.000000 0.423529 0.000000
0.000000 0.149020 0.043137
0.000000 0.149020 0.031373
0.000000 0.149020 0.015686
0.000000 0.149020 0.003922
0.011765 0.149020 0.000000
0.027451 0.149020 0.000000
0.043137 0.149020 0.000000
0.058824 0.149020 0.000000
0.074510 0.149020 0.000000
0.090196 0.149020 0.000000
0.109804 0.152941 0.000000
0.141176 0.168627 0.000000
0.168627 0.184314 0.000000
0.196078 0.200000 0.000000
0.215686 0.207843 0.000000
0.235294 0.211765 0.000000
0.250980 0.219608 0.000000
0.270588 0.223529 0.000000
0.286275 0.227451 0.000000
0.305882 0.231373 0.000000
0.321569 0.239216 0.000000
0.341176 0.243137 0.000000
0.356863 0.247059 0.000000
0.376471 0.254902 0.000000
0.396078 0.258824 0.000000
0.411765 0.262745 0.000000
0.431373 0.270588 0.000000
0.450980 0.274510 0.000000
0.470588 0.282353 0.000000
0.486275 0.286275 0.000000
0.505882 0.290196 0.000000
0.525490 0.298039 0.000000
0.545098 0.301961 0.000000
0.560784 0.309804 0.000000
0.580392 0.313725 0.000000
0.600000 0.317647 0.000000
0.615686 0.325490 0.000000
0.635294 0.329412 0.000000
0.654902 0.333333 0.000000
0.670588 0.341176 0.000000
0.690196 0.345098 0.000000
0.705882 0.349020 0.000000
0.725490 0.356863 0.000000
0.741176 0.360784 0.000000
0.760784 0.364706 0.000000
0.776471 0.372549 0.000000
0.792157 0.376471 0.000000
0.811765 0.380392 0.000000
0.827451 0.388235 0.000000
0.843137 0.392157 0.000000
0.858824 0.396078 0.000000
0.874510 0.400000 0.000000
0.890196 0.403922 0.000000
0.901961 0.407843 0.000000
0.917647 0.411765 0.000000
0.933333 0.419608 0.000000
0.945098 0.423529 0.000000
0.960784 0.427451 0.000000
0.972549 0.431373 0.000000
0.984314 0.435294 0.000000
0.996078 0.435294 0.000000
1.000000 0.439216 0.000000
1.000000 0.439216 0.000000
1.000000 0.439216 0.000000
0.000000 0.164706 0.047059
0.000000 0.164706 0.035294
0.000000 0.164706 0.023529
0.000000 0.164706 0.007843
0.007843 0.164706 0.000000
0.023529 0.164706 0.000000
0.039216 0.164706 0.000000
0.054902 0.164706 0.000000
0.070588 0.164706 0.000000
0.086275 0.164706 0.000000
0.101961 0.164706 0.000000
0.121569 0.168627 0.000000
0.152941 0.184314 0.000000
0.180392 0.200000 0.000000
0.207843 0.215686 0.000000
0.235294 0.231373 0.000000
0.250980 0.235294 0.000000
0.270588 0.239216 0.000000
0.286275 0.243137 0.000000
0.305882 0.247059 0.000000
0.321569 0.254902 0.000000
0.341176 0.258824 0.000000
0.356863 0.262745 0.000000
0.376471 0.270588 0.000000
0.396078 0.274510 0.000000
0.411765 0.278431 0.000000
0.431373 0.286275 0.000000
0.450980 0.290196 0.000000
0.470588 0.298039 0.000000
0.486275 0.301961 0.000000
0.505882 0.305882 0.000000
0.525490 0.313725 0.000000
0.545098 0.317647 0.000000
0.560784 0.325490 0.000000
0.580392 0.329412 0.000000
0.600000 0.333333 0.000000
0.615686 0.341176 0.000000
0.635294 0.345098 0.000000
0.654902 0.349020 0.000000
0.670588 0.356863 0.000000
0.690196 0.360784 0.000000
0.705882 0.364706 0.000000
0.725490 0.372549 0.000000
0.741176 0.376471 0.000000
0.760784 0.380392 0.000000
0.776471 0.388235 0.000000
0.792157 0.392157 0.000000
0.811765 0.396078 0.000000
0.827451 0.400000 0.000000
0.843137 0.407843 0.000000
0.858824 0.411765 0.000000
0.874510 0.415686 0.000000
0.890196 0.419608 0.000000
0.901961 0.423529 0.000000
0.917647 0.427451 0.000000
0.933333 0.435294 0.000000
0.945098 0.439216 0.000000
0.960784 0.443137 0.000000
0.972549 0.447059 0.000000
0.984314 0.450980 0.000000
0.996078 0.450980 0.000000
1.000000 0.454902 0.000000
1.000000 0.454902 0.000000
1.000000 0.454902 0.000000
0.000000 0.180392 0.054902
0.000000 0.180392 0.039216
0.000000 0.180392 0.027451
0.000000 0.180392 0.011765
0.000000 0.180392 0.000000
0.015686 0.180392 0.000000
0.031373 0.180392 0.000000
0.047059 0.180392 0.000000
0.062745 0.180392 0.000000
0.078431 0.180392 0.000000
0.098039 0.180392 0.000000
0.113725 0.180392 0.000000
0.133333 0.184314 0.000000
0.164706 0.200000 0.000000
0.192157 0.215686 0.000000
0.223529 0.235294 0.000000
0.250980 0.250980 0.000000
0.270588 0.254902 0.000000
0.286275 0.258824 0.000000
0.305882 0.266667 0.000000
0.321569 0.270588 0.000000
0.341176 0.274510 0.000000
0.356863 0.278431 0.000000
0.376471 0.286275 0.000000
0.396078 0.290196 0.000000
0.411765 0.298039 0.000000
0.431373 0.301961 0.000000
0.450980 0.305882 0.000000
0.470588 0.313725 0.000000
0.486275 0.317647 0.000000
0.505882 0.321569 0.000000
0.525490 0.329412 0.000000
0.545098 0.333333 0.000000
0.560784 0.341176 0.000000
0.580392 0.345098 0.000000
0.600000 0.349020 0.000000
0.615686 0.356863 0.000000
0.635294 0.360784 0.000000
0.654902 0.364706 0.000000
0.670588 0.372549 0.000000
0.690196 0.376471 0.000000
0.705882 0.384314 0.000000
0.725490 0.388235 0.000000
0.741176 0.392157 0.000000
0.760784 0.396078 0.000000
0.776471 0.403922 0.000000
0.792157 0.407843 0.000000
0.811765 0.411765 0.000000
0.827451 0.419608 0.000000
0.843137 0.423529 0.000000
0.858824 0.427451 0.000000
0.874510 0.431373 0.000000
0.890196 0.435294 0.000000
0.901961 0.439216 0.000000
0.917647 0.443137 0.000000
0.933333 0.450980 0.000000
0.945098 0.454902 0.000000
0.960784 0.458824 0.000000
0.972549 0.462745 0.000000
0.984314 0.466667 0.000000
0.996078 0.466667 0.000000
1.000000 0.470588 0.000000
1.000000 0.470588 0.000000
1.000000 0.470588 0.000000
0.000000 0.196078 0.058824
0.000000 0.196078 0.047059
0.000000 0.196078 0.031373
0.000000 0.196078 0.015686
0.000000 0.196078 0.003922
0.011765 0.196078 0.000000
0.027451 0.196078 0.000000
0.043137 0.196078 0.000000
0.058824 0.196078 0.000000
0.074510 0.196078 0.000000
0.090196 0.196078 0.000000
0.109804 0.196078 0.000000
0.125490 0.196078 0.000000
0.149020 0.200000 0.000000
0.176471 0.215686 0.000000
0.207843 0.235294 0.000000
0.235294 0.250980 0.000000
0.266667 0.270588 0.000000
0.286275 0.278431 0.000000
0.305882 0.282353 0.000000
0.321569 0.286275 0.000000
0.341176 0.290196 0.000000
0.356863 0.298039 0.000000
0.376471 0.301961 0.000000
0.396078 0.305882 0.000000
0.411765 0.313725 0.000000
0.431373 0.317647 0.000000
0.450980 0.321569 0.000000
0.470588 0.329412 0.000000
0.486275 0.333333 0.000000
0.505882 0.341176 0.000000
0.525490 0.345098 0.000000
0.545098 0.349020 0.000000
0.560784 0.356863 0.000000
0.580392 0.360784 0.000000
0.600000 0.364706 0.000000
0.615686 0.372549 0.000000
0.635294 0.376471 0.000000
0.654902 0.384314 0.000000
0.670588 0.388235 0.000000
0.690196 0.392157 0.000000
0.705882 0.400000 0.000000
0.725490 0.403922 0.000000
0.741176 0.407843 0.000000
0.760784 0.415686 0.000000
0.776471 0.419608 0.000000
0.792157 0.423529 0.000000
